X: 1
T: The Atholl Highlanders
M: 6/8
L: 1/8
R: jig
K: AMix
%
|:e2e ecA|ecA Bcd|e2e ecA|Bcd cBA|
e2e ecA|ecA Bcd|eae fed|cdB A3:|
